resources/SLDS/icons/standard/propagation_policy.svg

<svg xmlns="http://www.w3.org/2000/svg" height="100" width="100" viewBox="0 0 100 100" fill="#fff"><path d="M36 20H26a6 6 0 0 0-6 6v8a6 6 0 0 0 6 6h10a6 6 0 0 0 6-6v-8a6 6 0 0 0-6-6zm-4 14h-2a4 4 0 0 1 0-8h2a4 4 0 0 1 0 8zm22 6h10a6 6 0 0 0 6-6v-8a6 6 0 0 0-6-6H54a6 6 0 0 0-6 6v8a6 6 0 0 0 6 6zm4-14h2a4 4 0 0 1 0 8h-2a4 4 0 0 1 0-8zM36 46H26a6 6 0 0 0-6 6v8a6 6 0 0 0 6 6h10a6 6 0 0 0 6-6v-8a6 6 0 0 0-6-6zm-4 14h-2a4 4 0 0 1 0-8h2a4 4 0 0 1 0 8zm45 7H67v-3.5a9 9 0 1 0-6 0V67H51a3 3 0 0 0-3 3v7a3 3 0 0 0 6 0v-4h7v4a3 3 0 0 0 6 0v-4h7v4a3 3 0 0 0 6 0v-7a3 3 0 0 0-3-3zM64 52a3 3 0 1 1-3 3 3 3 0 0 1 3-3z"/></svg>

<svg data-name="Layer 1" xmlns="http://www.w3.org/2000/svg" width="100" height="100" viewBox="0 0 100 100"><path d="M36,20H26a6,6,0,0,0-6,6v8a6,6,0,0,0,6,6H36a6,6,0,0,0,6-6V26A6,6,0,0,0,36,20ZM32,34H30a4,4,0,0,1,0-8h2a4,4,0,0,1,0,8Z" fill="#fff" fill-rule="evenodd"/><path d="M54,40H64a6,6,0,0,0,6-6V26a6,6,0,0,0-6-6H54a6,6,0,0,0-6,6v8A6,6,0,0,0,54,40Zm4-14h2a4,4,0,0,1,0,8H58a4,4,0,0,1,0-8Z" fill="#fff" fill-rule="evenodd"/><path d="M36,46H26a6,6,0,0,0-6,6v8a6,6,0,0,0,6,6H36a6,6,0,0,0,6-6V52A6,6,0,0,0,36,46ZM32,60H30a4,4,0,0,1,0-8h2a4,4,0,0,1,0,8Z" fill="#fff" fill-rule="evenodd"/><path d="M77,67H67V63.48a9,9,0,1,0-6,0V67H51a3,3,0,0,0-3,3v7a3,3,0,0,0,6,0V73h7v4a3,3,0,0,0,6,0V73h7v4a3,3,0,0,0,6,0V70A3,3,0,0,0,77,67ZM64,52a3,3,0,1,1-3,3A3,3,0,0,1,64,52Z" fill="#fff" fill-rule="evenodd"/></svg>
